X:2404
T:Mylecharaine
C:Arranged by James B. Nicholson
C:Traditional
O:Isle of Man 
Z:Collected by A.W.Moore et al.
N:See also KV 247,294,295,302,373,403.
B:Kiaull Vannin #404
M:3/4 
L:1/4
K:D
B|A F A|B2 B|A F D|C2 c|d c B|(B ^A) B|c2 c|
d f d|c d B|A F D|C D E|F D ,B|!fermata!C2 {B}^A|B2||

